X: 9408
T: Daniel Of The Sun
R: jig
M: 6/8
K: Dmajor
|:fdd edd|fef dBA|Bee e2d|Bee e2a|
fdd edd|fef dBA|Bdd dcd|Bdd d3:|
|:fga efg|fef dBA|Bee e2d|Bee e2a|
fga efg|fef dBA|Bdd dcd|Bdd d3:|

